X: 1
T:Rachel Rae
T:Courting Them All
C:John Lowe Collect I-6
N:Reel
N:Arranged by Elke Baker
N:Potomac Valley Scottish Fiddle Club
M:2/2
L:1/8
Q:1/4=150
R:Reel
K:D
|:F|"D"D2 FA d2 AF|"D"d2 fd "A"e2 cA|"D"d2 AF "Em/G"B2 GD|"A"A,2 GE FDD:|
|A|"D"d2 df a2 fd|"Em"g2 bg "A"e2 cA|"D"d2 df a2 fd|"A7"Bgfe "D"fddA|
"D"defg fafd|"Em"g2 bg "A"e2 cA|"D"d2 AF "Em/G"B2 GE|"A"A,2 GE FDD|
